icons/jenkins/jenkins-plain.svg

<?xml version="1.0" encoding="UTF-8"?>
<svg xmlns="http://www.w3.org/2000/svg" xmlns:xlink="http://www.w3.org/1999/xlink" width="128px" height="128px" viewBox="0 0 128 128" version="1.1">
<g id="surface1">
<path style=" stroke:none;fill-rule:nonzero;fill:rgb(99.215686%,99.215686%,99.215686%);fill-opacity:1;" d="M 62.800781 124.300781 C 59.300781 123.898438 59 123.601562 57.5 118.699219 C 55.800781 112.800781 52.601562 95.101562 53.199219 94.5 C 55.101562 92.601562 75.800781 92.101562 76.898438 93.898438 C 77.898438 95.398438 79.5 122.898438 78.699219 123.699219 C 77.898438 124.398438 67.199219 124.898438 62.800781 124.300781 Z M 62.800781 124.300781 "/>
<path style=" stroke:none;fill-rule:nonzero;fill:rgb(99.215686%,99.215686%,99.215686%);fill-opacity:1;" d="M 81.601562 117.800781 C 80.5 114.398438 80.398438 110.898438 81.199219 110.300781 C 82.601562 109.5 84 111.898438 84 115.199219 C 84 118.101562 82.300781 120 81.601562 117.800781 Z M 81.601562 117.800781 "/>
<path style=" stroke:none;fill-rule:nonzero;fill:rgb(99.215686%,99.215686%,99.215686%);fill-opacity:1;" d="M 47 109.101562 C 43.398438 108 38.199219 105.199219 37.5 104 C 37.101562 103.398438 36.601562 99.898438 36.300781 96.199219 C 36 92.5 34.898438 86.101562 33.800781 82 C 32.699219 77.898438 31.601562 73.601562 31.300781 72.5 C 30.699219 69.5 43.300781 61 45.800781 62.800781 C 46.699219 63.5 49.898438 65.398438 52.699219 67.101562 C 57.101562 69.699219 58.101562 70.800781 59.101562 74.300781 C 59.699219 76.601562 60.898438 79.101562 61.800781 79.800781 C 62.699219 80.5 63.5 82 63.5 83.101562 C 63.5 85 65.800781 86.699219 71 88.699219 C 73 89.5 71.5 89.800781 63.699219 90.398438 C 58.398438 90.800781 53.5 90.800781 52.898438 90.398438 C 52.199219 90 52 88.199219 52.199219 86.101562 C 52.5 84.101562 52.398438 81.601562 51.898438 80.5 C 51.398438 79.101562 51.101562 80.300781 51.101562 84.101562 C 51 90.300781 50.398438 91.601562 48.199219 89.699219 C 46.898438 88.699219 46.800781 88.800781 47.199219 90 C 47.5 90.800781 47 92 46.101562 92.699219 C 44.699219 93.800781 45 93.898438 47.699219 94 C 50.601562 94 50.898438 94.300781 51.398438 98 C 51.699219 100.199219 52.300781 103.800781 52.601562 106 C 53.199219 110.300781 52.5 110.699219 47 109.101562 Z M 47 109.101562 "/>
<path style=" stroke:none;fill-rule:nonzero;fill:rgb(99.215686%,99.215686%,99.215686%);fill-opacity:1;" d="M 80.101562 100 C 80 94.601562 80.300781 93 81.398438 93 C 82.300781 93 83.199219 94.898438 83.898438 98 C 85.300781 104.699219 85.300781 105.699219 83.398438 106.398438 C 80.5 107.5 80.199219 107 80.101562 100 Z M 80.101562 100 "/>
<path style=" stroke:none;fill-rule:nonzero;fill:rgb(99.215686%,99.215686%,99.215686%);fill-opacity:1;" d="M 101.601562 103.601562 C 102 102.699219 100.800781 102.398438 97.398438 102.398438 L 92.800781 102.5 L 92.398438 97 L 92 91.5 L 96.699219 89.800781 C 102.300781 87.800781 103.300781 88.398438 104.898438 94.5 C 106.101562 99.300781 105.199219 103.300781 102.601562 104.300781 C 101.601562 104.699219 101.300781 104.398438 101.601562 103.601562 Z M 100 98.398438 C 100 98.199219 98.800781 98 97.300781 98 C 95.199219 98 94.898438 98.300781 95.898438 98.898438 C 97.199219 99.699219 100 99.398438 100 98.398438 Z M 100 95.101562 C 100 94.601562 98.898438 94.300781 97.5 94.601562 C 94.398438 95.101562 94.199219 94.199219 97.199219 93.101562 C 98.398438 92.699219 98.898438 92.101562 98.398438 91.800781 C 97.101562 90.898438 93.699219 93.699219 94.5 94.898438 C 95.300781 96.199219 100 96.398438 100 95.101562 Z M 100 95.101562 "/>
<path style=" stroke:none;fill-rule:nonzero;fill:rgb(99.215686%,99.215686%,99.215686%);fill-opacity:1;" d="M 87.601562 99.300781 C 87.300781 97.199219 87 94.601562 87 93.5 C 87.101562 91.5 87.101562 91.5 88.5 93.398438 C 90.101562 95.5 90.601562 103 89.101562 103 C 88.699219 103 88 101.300781 87.601562 99.300781 Z M 87.601562 99.300781 "/>
<path style=" stroke:none;fill-rule:nonzero;fill:rgb(99.215686%,99.215686%,99.215686%);fill-opacity:1;" d="M 82 89.398438 C 82 89.300781 83.5 86.699219 85.398438 83.601562 C 88.601562 78.300781 88.800781 77.398438 88.601562 70.5 C 88.398438 66.398438 87.800781 62.398438 87.101562 61.601562 C 86.398438 60.800781 86.300781 59.898438 86.800781 59.601562 C 87.199219 59.398438 89.300781 60.800781 91.300781 62.898438 C 95.300781 67 96 70.5 93.800781 75.699219 C 93.199219 77.199219 92.601562 79.199219 92.398438 80 C 92.199219 80.898438 91.398438 83.199219 90.601562 85.199219 C 89.300781 88.199219 88.5 88.800781 85.5 89.199219 C 83.601562 89.398438 82 89.5 82 89.398438 Z M 82 89.398438 "/>
<path style=" stroke:none;fill-rule:nonzero;fill:rgb(99.215686%,99.215686%,99.215686%);fill-opacity:1;" d="M 69.101562 84.601562 L 64.601562 82.300781 L 67.300781 79.601562 C 68.699219 78.199219 70.300781 77 70.898438 77 C 71.699219 77 76 84.699219 76 86.300781 C 76 87.601562 73.601562 86.898438 69.101562 84.601562 Z M 69.101562 84.601562 "/>
<path style=" stroke:none;fill-rule:nonzero;fill:rgb(99.215686%,99.215686%,99.215686%);fill-opacity:1;" d="M 76.699219 80.398438 C 74.601562 76.199219 74.199219 74.5 75.101562 73.898438 C 76.398438 73.101562 79.699219 74.699219 80.300781 76.5 C 80.601562 77 80.398438 79.5 80.101562 81.898438 L 79.5 86.199219 Z M 76.699219 80.398438 "/>
<path style=" stroke:none;fill-rule:nonzero;fill:rgb(99.215686%,99.215686%,99.215686%);fill-opacity:1;" d="M 82.398438 81.5 C 82.699219 79.300781 82.898438 76.898438 82.898438 76.300781 C 83 74.800781 85.601562 74.601562 86.5 76 C 86.800781 76.5 86 78.898438 84.5 81.199219 L 82 85.5 Z M 82.398438 81.5 "/>
<path style=" stroke:none;fill-rule:nonzero;fill:rgb(99.215686%,99.215686%,99.215686%);fill-opacity:1;" d="M 61.101562 74.898438 C 59.699219 70.800781 59.699219 66.300781 61.101562 65.5 C 62.898438 64.300781 71 67.898438 70.300781 69.601562 C 70 70.398438 70.300781 71 70.898438 71 C 74.101562 71 69.101562 75.898438 64.398438 77.398438 C 62.601562 77.898438 62 77.5 61.101562 74.898438 Z M 61.101562 74.898438 "/>
<path style=" stroke:none;fill-rule:nonzero;fill:rgb(99.215686%,99.215686%,99.215686%);fill-opacity:1;" d="M 79 71.300781 C 79 70.699219 79.601562 69.898438 80.300781 69.699219 C 81.199219 69.300781 81.199219 68.898438 80.101562 68.199219 C 79.101562 67.398438 79.300781 66.898438 81.101562 65.601562 C 84.300781 63.398438 84.898438 63.601562 86.101562 66.601562 C 87.699219 70.898438 86.5 72.898438 82.5 72.699219 C 80.601562 72.601562 79 72 79 71.300781 Z M 79 71.300781 "/>
<path style=" stroke:none;fill-rule:nonzero;fill:rgb(99.215686%,99.215686%,99.215686%);fill-opacity:1;" d="M 54.5 66 C 54.199219 65.5 54.800781 65 56 65 C 57.199219 65 57.800781 65.5 57.5 66 C 57.199219 66.601562 56.5 67 56 67 C 55.5 67 54.800781 66.601562 54.5 66 Z M 54.5 66 "/>
<path style=" stroke:none;fill-rule:nonzero;fill:rgb(99.215686%,99.215686%,99.215686%);fill-opacity:1;" d="M 52.5 62.300781 C 48.601562 60.199219 47.300781 58.5 45.601562 53 C 44.699219 50.101562 44.601562 48.101562 45.199219 47.300781 C 46.699219 45.398438 45.199219 43.800781 43 45 C 40.5 46.300781 40.398438 46.300781 38 43.800781 C 36.898438 42.5 36 40.300781 36 38.398438 C 36 33 40.800781 29.898438 43 33.898438 C 44.300781 36.398438 44.300781 38.101562 42.898438 35.800781 C 42.398438 34.800781 41.101562 34 40.101562 34 C 38.699219 34 38.398438 34.601562 38.800781 37.199219 C 39.300781 40.398438 39.300781 40.398438 40.199219 38 C 41.101562 35.601562 41.199219 35.601562 42.601562 37.398438 C 43.398438 38.5 44 38.898438 44 38.300781 C 44 37.601562 45.199219 37 46.800781 36.800781 C 48.898438 36.601562 49.398438 36 49.199219 34.5 C 48.699219 31.699219 48.800781 26.5 49.300781 19.699219 C 49.601562 15 50.199219 13.398438 52.601562 10.898438 C 59.601562 3.5 68.898438 1.800781 78.800781 6 C 85.199219 8.800781 89.601562 14 85.5 14 C 84.101562 14 83.699219 15 84.300781 16.699219 C 84.398438 17.101562 85.398438 17.300781 86.601562 17.199219 C 90.800781 16.601562 93.800781 24.101562 93.199219 34 C 93.101562 35.898438 92.898438 38.699219 92.898438 40.300781 C 92.800781 41.800781 92.398438 43 91.898438 43 C 91.5 43 90.898438 44.300781 90.5 45.898438 C 88.601562 54.699219 80.101562 62 72 62 C 66.601562 62 63 60 58.101562 54.300781 C 55.398438 51.101562 54 50.101562 54 51.199219 C 54 52.699219 59.398438 59.800781 62.5 62.300781 C 63.101562 62.800781 62.5 62.898438 61.300781 62.5 C 60.101562 62.199219 58.898438 62.398438 58.5 63 C 57.601562 64.398438 56 64.199219 52.5 62.300781 Z M 80.101562 55 C 81.101562 55 82 54.699219 82 54.300781 C 82 53.800781 79.699219 53.398438 76.898438 53.300781 C 73.199219 53.199219 71.199219 52.601562 69.398438 50.898438 C 68.101562 49.699219 67 49.101562 67 49.699219 C 67 52.300781 73.699219 56.300781 76.800781 55.398438 C 77.601562 55.199219 79 55 80.101562 55 Z M 80.898438 48.699219 C 80.699219 48.398438 77.800781 48 74.5 47.699219 C 69.699219 47.199219 68.898438 47.300781 70.5 48.300781 C 73.300781 49.898438 79.300781 50.800781 80.398438 49.800781 C 80.898438 49.398438 81.199219 48.898438 80.898438 48.699219 Z M 86.800781 48.398438 C 88 47.601562 89 46.5 89 46 C 89 44.800781 82.699219 47.5 82.199219 48.898438 C 81.699219 50.5 84.199219 50.199219 86.800781 48.398438 Z M 83 44.398438 C 89 42 89.898438 39.5 86.199219 35.601562 C 84.5 33.898438 82.300781 30.898438 81.101562 29 C 80 27.101562 79 26.199219 79 27.101562 C 79 28 80.101562 30.199219 81.5 32.101562 C 82.800781 34 84.699219 36.5 85.601562 37.800781 C 87.601562 40.601562 86.898438 41.601562 81.398438 43.5 C 78 44.699219 77.300781 44.601562 75.800781 43.300781 C 73.800781 41.5 73.300781 42.898438 75.199219 44.800781 C 76.800781 46.398438 78.199219 46.300781 83 44.398438 Z M 71.800781 31.800781 C 72.5 30.898438 72.300781 29.800781 70.898438 28.101562 C 69.898438 26.800781 69 26.300781 69 26.800781 C 69 27.398438 69.5 28.199219 70 28.5 C 72 29.699219 70.898438 31 67.898438 31 C 66.199219 31 65.101562 31.398438 65.5 32 C 66.398438 33.398438 70.601562 33.199219 71.800781 31.800781 Z M 90.800781 31.101562 C 91.699219 30.601562 91.898438 29.398438 91.398438 27.601562 C 90.5 23.699219 88.601562 23 89.5 26.898438 C 90.101562 29.601562 89.898438 30 88 30 C 86.800781 30 86.199219 30.5 86.5 31 C 87.199219 32.199219 89 32.300781 90.800781 31.101562 Z M 63.800781 18 C 66.101562 18 66.800781 16.601562 65 15.5 C 64.101562 15 58 17.5 58 18.398438 C 58 18.699219 57.699219 19.699219 57.300781 20.699219 C 56.800781 22.199219 57.101562 22.199219 59.199219 20.300781 C 60.5 19 62.601562 18 63.800781 18 Z M 63.800781 18 "/>
<path style=" stroke:none;fill-rule:nonzero;fill:rgb(99.215686%,99.215686%,99.215686%);fill-opacity:1;" d="M 44.5 29.898438 C 44.101562 29.300781 42.398438 29 40.699219 29.199219 C 37.898438 29.5 37.5 29.199219 37.199219 26.898438 C 36.699219 22.601562 38.699219 19 42.601562 17.398438 C 46.699219 15.699219 47.300781 15.898438 47.101562 19.199219 C 47 20.5 46.898438 23.601562 46.898438 26.300781 C 46.898438 30.800781 45.898438 32.199219 44.5 29.898438 Z M 44.5 29.898438 "/>
<path style=" stroke:none;fill-rule:nonzero;fill:rgb(99.215686%,99.215686%,99.215686%);fill-opacity:1;" d="M 43 13 C 43 12 44.699219 10.699219 49.300781 8.101562 L 53.101562 6 L 50.300781 9.5 C 48.800781 11.398438 47.300781 13 47 13.101562 C 46.699219 13.101562 45.699219 13.300781 44.800781 13.5 C 43.800781 13.699219 43 13.5 43 13 Z M 43 13 "/>
</g>
</svg>

<svg xmlns="http://www.w3.org/2000/svg" viewBox="0 0 128 128"><g fill="#fdfdfd"><path d="M62.8 124.3c-3.5-.402-3.8-.698-5.3-5.6-1.7-5.9-4.898-23.598-4.3-24.2 1.902-1.898 22.6-2.398 23.698-.602 1 1.5 2.602 29 1.801 29.801-.8.7-11.5 1.2-15.898.602zm0 0M81.602 117.8c-1.102-3.402-1.204-6.902-.403-7.5 1.403-.8 2.801 1.598 2.801 4.9 0 2.902-1.7 4.8-2.398 2.6zm0 0"/><path d="M47 109.102c-3.602-1.102-8.8-3.903-9.5-5.102-.398-.602-.898-4.102-1.2-7.8-.3-3.7-1.402-10.098-2.5-14.2-1.1-4.102-2.198-8.398-2.5-9.5-.6-3 12-11.5 14.5-9.7.9.7 4.098 2.598 6.9 4.302 4.402 2.597 5.402 3.699 6.402 7.199.597 2.3 1.796 4.8 2.699 5.5.898.699 1.699 2.199 1.699 3.3C63.5 85 65.8 86.7 71 88.7c2 .801.5 1.102-7.3 1.7-5.302.402-10.2.402-10.802 0-.699-.399-.898-2.2-.699-4.297.301-2 .2-4.5-.3-5.602-.5-1.398-.797-.2-.797 3.602-.102 6.199-.704 7.5-2.903 5.597-1.3-1-1.398-.898-1 .301.301.8-.199 2-1.097 2.7-1.403 1.1-1.102 1.198 1.597 1.3 2.903 0 3.2.3 3.7 4 .3 2.2.902 5.8 1.203 8 .597 4.3-.102 4.7-5.602 3.102zm0 0M80.102 100c-.102-5.398.199-7 1.296-7 .903 0 1.801 1.898 2.5 5 1.403 6.7 1.403 7.7-.5 8.398C80.5 107.5 80.2 107 80.102 100zm0 0M101.602 103.602c.398-.903-.801-1.204-4.204-1.204l-4.597.102-.403-5.5L92 91.5l4.7-1.7c5.6-2 6.6-1.402 8.198 4.7 1.204 4.8.301 8.8-2.296 9.8-1 .4-1.301.098-1-.698zM100 98.398c0-.199-1.2-.398-2.7-.398-2.1 0-2.402.3-1.402.898 1.301.801 4.102.5 4.102-.5zm0-3.296c0-.5-1.102-.801-2.5-.5-3.102.5-3.3-.403-.3-1.5 1.198-.403 1.698-1 1.198-1.301-1.296-.903-4.699 1.898-3.898 3.097.8 1.301 5.5 1.5 5.5.204zm0 0M87.602 99.3C87.3 97.2 87 94.603 87 93.5c.102-2 .102-2 1.5-.102 1.602 2.102 2.102 9.602.602 9.602-.403 0-1.102-1.7-1.5-3.7zm0 0M82 89.398c0-.097 1.5-2.699 3.398-5.796 3.204-5.301 3.403-6.204 3.204-13.102-.204-4.102-.801-8.102-1.5-8.898-.704-.801-.801-1.704-.301-2 .398-.204 2.5 1.199 4.5 3.296C95.3 67 96 70.5 93.8 75.7c-.602 1.5-1.2 3.5-1.403 4.301-.199.898-1 3.2-1.796 5.2-1.301 3-2.102 3.6-5.102 4-1.898.198-3.5.3-3.5.198zm0 0"/><path d="M69.102 84.602l-4.5-2.301 2.699-2.7C68.699 78.2 70.3 77 70.898 77 71.7 77 76 84.7 76 86.3c0 1.302-2.398.598-6.898-1.698zm0 0M76.7 80.398c-2.098-4.199-2.5-5.898-1.598-6.5 1.296-.796 4.597.801 5.199 2.602.3.5.097 3-.2 5.398L79.5 86.2zm0 0M82.398 81.5c.301-2.2.5-4.602.5-5.2.102-1.5 2.704-1.698 3.602-.3.3.5-.5 2.898-2 5.2L82 85.5zm0 0M61.102 74.898c-1.403-4.097-1.403-8.597 0-9.398 1.796-1.2 9.898 2.398 9.199 4.102-.301.796 0 1.398.597 1.398 3.204 0-1.796 4.898-6.5 6.398-1.796.5-2.398.102-3.296-2.5zm0 0M79 71.3c0-.6.602-1.402 1.3-1.6.9-.4.9-.802-.198-1.5-1-.802-.801-1.302 1-2.598 3.199-2.204 3.796-2 5 1 1.597 4.296.398 6.296-3.602 6.097-1.898-.097-3.5-.699-3.5-1.398zm0 0M54.5 66c-.3-.5.3-1 1.5-1s1.8.5 1.5 1c-.3.602-1 1-1.5 1s-1.2-.398-1.5-1zm0 0M52.5 62.3c-3.898-2.1-5.2-3.8-6.898-9.3-.903-2.898-1-4.898-.403-5.7 1.5-1.902 0-3.5-2.199-2.3-2.5 1.3-2.602 1.3-5-1.2-1.102-1.3-2-3.5-2-5.402 0-5.398 4.8-8.5 7-4.5 1.3 2.5 1.3 4.204-.102 1.903-.5-1-1.796-1.801-2.796-1.801-1.403 0-1.704.602-1.301 3.2.5 3.198.5 3.198 1.398.8.903-2.398 1-2.398 2.403-.602.796 1.102 1.398 1.5 1.398.903 0-.7 1.2-1.301 2.8-1.5 2.098-.2 2.598-.801 2.4-2.301-.5-2.8-.4-8 .1-14.8.302-4.7.9-6.302 3.302-8.802C59.602 3.5 68.898 1.801 78.8 6c6.398 2.8 10.8 8 6.699 8-1.398 0-1.8 1-1.2 2.7.098.402 1.098.6 2.302.5 4.199-.598 7.199 6.902 6.597 16.8-.097 1.898-.3 4.7-.3 6.3-.098 1.5-.5 2.7-1 2.7-.399 0-1 1.3-1.399 2.898C88.602 54.7 80.102 62 72 62c-5.398 0-9-2-13.898-7.7C55.398 51.103 54 50.103 54 51.2c0 1.5 5.398 8.6 8.5 11.1.602.5 0 .598-1.2.2-1.198-.3-2.402-.102-2.8.5-.898 1.398-2.5 1.2-6-.7zM80.102 55c1 0 1.898-.3 1.898-.7 0-.5-2.3-.902-5.102-1-3.699-.1-5.699-.698-7.5-2.402C68.102 49.7 67 49.102 67 49.7c0 2.602 6.7 6.602 9.8 5.7.802-.2 2.2-.399 3.302-.399zm.796-6.3c-.199-.302-3.097-.7-6.398-1-4.8-.5-5.602-.4-4 .6 2.8 1.598 8.8 2.5 9.898 1.5.5-.402.801-.902.5-1.1zm5.903-.302C88 47.602 89 46.5 89 46c0-1.2-6.3 1.5-6.8 2.898-.5 1.602 2 1.301 4.6-.5zm-3.801-4c6-2.398 6.898-4.898 3.2-8.796-1.7-1.704-3.9-4.704-5.098-6.602C80 27.102 79 26.2 79 27.102c0 .898 1.102 3.097 2.5 5C82.8 34 84.7 36.5 85.602 37.8c2 2.8 1.296 3.8-4.204 5.699-3.398 1.2-4.097 1.102-5.597-.2-2-1.8-2.5-.402-.602 1.5 1.602 1.598 3 1.5 7.801-.402zM71.8 31.801c.7-.903.5-2-.902-3.7-1-1.3-1.898-1.8-1.898-1.3 0 .597.5 1.398 1 1.699 2 1.2.898 2.5-2.102 2.5-1.699 0-2.796.398-2.398 1 .898 1.398 5.102 1.2 6.3-.2zm19-.7c.9-.5 1.098-1.703.598-3.5C90.5 23.7 88.602 23 89.5 26.899 90.102 29.602 89.898 30 88 30c-1.2 0-1.8.5-1.5 1 .7 1.2 2.5 1.3 4.3.102zM63.8 18c2.302 0 3-1.398 1.2-2.5-.898-.5-7 2-7 2.898 0 .301-.3 1.301-.7 2.301-.5 1.5-.198 1.5 1.9-.398C60.5 19 62.601 18 63.8 18zm0 0"/><path d="M44.5 29.898c-.398-.597-2.102-.898-3.8-.699-2.802.301-3.2 0-3.5-2.3-.5-4.297 1.5-7.899 5.402-9.5 4.097-1.7 4.699-1.5 4.5 1.8-.102 1.301-.204 4.403-.204 7.102 0 4.5-1 5.898-2.398 3.597zm0 0M43 13c0-1 1.7-2.3 6.3-4.898L53.103 6 50.3 9.5c-1.5 1.898-3 3.5-3.301 3.602-.3 0-1.3.199-2.2.398-1 .2-1.8 0-1.8-.5zm0 0"/></g></svg>
